X:1
T:Title
%%score ( 1 2 ) { 3 | 4 }
L:1/8
Q:1/4=112
M:4/4
K:E
V:1 treble nm="Grand Piano, Soprano"
V:2 treble 
V:3 bass nm="Choir Pad, Bass"
V:4 bass 
V:1
 [B,E]4 [EG]2 [EB]2 | [EB]2 [EA]2 [FA]4 | [EG]4 [EB]2 [EB]2 | [Ec]2 [EF]2 [DF]4 | %4
w: By~George~Mursell~Garrett,~1872 * *||||
 [EG]4 [F^A]2 [FB]2 | [GB]2 [Ge]2 [Fd]2 [Gc]2 | [FB]4 ^A2 c2 | [DB]8 | [DB]4 [DB]2 [DG]2 | %9
w: |||||
 [CF]2 [CE]2 [CE]4 | [CA]4 [CA]2 [CF]2 | [B,E]2 [B,D]2 [B,D]4 | [B,E]4 [CF]2 [DF]2 | %13
w: ||||
 [EB]2 [EB]2 [Ee]2 [Fe]2 | [EG]4 G2 F2 | E8 |] %16
w: |||
V:2
 x8 | x8 | x8 | x8 | x8 | x8 | z4 E4 | x8 | x8 | x8 | x8 | x8 | x8 | x8 | z4 D4 | x8 |] %16
V:3
 G,4 B,2 G,2 | C2 C2 B,4 | B,4 B,2[K:treble] =D2 | C2 C2 B,4 | B,4 C2[K:bass] B,2 | %5
 B,2 B,2 B,2 E2 | D4 C2 ^A,2 | B,8 | B,4 G,2 B,2 | A,2 G,2 G,4 | A,4 F,2 A,2 | G,2 F,2 F,4 | %12
 G,4 A,2 A,2 | G,2 G,2 A,2 C2 | B,4 B,2 A,2 | G,8 |] %16
V:4
 E,4 E,2 E,2 | C,2 C,2 D,4 | E,4 G,,2 G,,2 | A,,2 A,,2 B,,4 | E,4 E,2 D,2 | E,2 C,2 D,2 E,2 | %6
 F,4 F,4 | B,,8 | G,,4 B,,2 B,,2 | C,2 C,2 C,4 | F,,4 A,,2 A,,2 | B,,2 B,,2 B,,4 | z4 F,2 F,2 | %13
 E,2 E,2 C,2 A,,2 | B,,4 B,,4 | E,8 |] %16

